X: 89
T: The Monaghan Twig
M: C|
L: 1/8
R: reel
K:Amix
ed|"A"cAAB cded|cAAG ~E2ed|cAAB cded|"G"BAGB d2:|
ed|"A"cdef "G"gfed|"A"cdef ~e3A|cdef "A7"gfge|"G"dBGB d2ed|
"A"cded cded|cAAB cdef|"A7"~g3e "G"dged|BAGB d2ed||


